svg/24/opacity.svg

<svg width="24" height="24" viewBox="0 0 24 24" fill="currentColor" xmlns="http://www.w3.org/2000/svg"><path fill-rule="evenodd" clip-rule="evenodd" d="M6.78033 3.21967C7.07322 3.51256 7.07322 3.98744 6.78033 4.28033L4.28033 6.78033C3.98744 7.07322 3.51256 7.07322 3.21967 6.78033C2.92678 6.48744 2.92678 6.01256 3.21967 5.71967L5.71967 3.21967C6.01256 2.92678 6.48744 2.92678 6.78033 3.21967ZM13.7803 3.21967C14.0732 3.51256 14.0732 3.98744 13.7803 4.28033L4.28033 13.7803C3.98744 14.0732 3.51256 14.0732 3.21967 13.7803C2.92678 13.4874 2.92678 13.0126 3.21967 12.7197L12.7197 3.21967C13.0126 2.92678 13.4874 2.92678 13.7803 3.21967ZM20.7803 3.21967C21.0732 3.51256 21.0732 3.98744 20.7803 4.28033L4.28033 20.7803C3.98744 21.0732 3.51256 21.0732 3.21967 20.7803C2.92678 20.4874 2.92678 20.0126 3.21967 19.7197L19.7197 3.21967C20.0126 2.92678 20.4874 2.92678 20.7803 3.21967ZM20.7803 10.2197C21.0732 10.5126 21.0732 10.9874 20.7803 11.2803L11.2803 20.7803C10.9874 21.0732 10.5126 21.0732 10.2197 20.7803C9.92678 20.4874 9.92678 20.0126 10.2197 19.7197L19.7197 10.2197C20.0126 9.92678 20.4874 9.92678 20.7803 10.2197ZM20.7803 17.2197C21.0732 17.5126 21.0732 17.9874 20.7803 18.2803L18.2803 20.7803C17.9874 21.0732 17.5126 21.0732 17.2197 20.7803C16.9268 20.4874 16.9268 20.0126 17.2197 19.7197L19.7197 17.2197C20.0126 16.9268 20.4874 16.9268 20.7803 17.2197Z"/></svg>

<svg xmlns="http://www.w3.org/2000/svg" width="24" height="24" fill="currentColor" viewBox="0 0 24 24">
  <path fill-rule="evenodd" d="M6.78 3.22a.75.75 0 0 1 0 1.06l-2.5 2.5a.75.75 0 0 1-1.06-1.06l2.5-2.5a.75.75 0 0 1 1.06 0Zm7 0a.75.75 0 0 1 0 1.06l-9.5 9.5a.75.75 0 0 1-1.06-1.06l9.5-9.5a.75.75 0 0 1 1.06 0Zm7 0a.75.75 0 0 1 0 1.06l-16.5 16.5a.75.75 0 0 1-1.06-1.06l16.5-16.5a.75.75 0 0 1 1.06 0Zm0 7a.75.75 0 0 1 0 1.06l-9.5 9.5a.75.75 0 1 1-1.06-1.06l9.5-9.5a.75.75 0 0 1 1.06 0Zm0 7a.75.75 0 0 1 0 1.06l-2.5 2.5a.75.75 0 1 1-1.06-1.06l2.5-2.5a.75.75 0 0 1 1.06 0Z" clip-rule="evenodd"/>
</svg>
